!!!COM: Music21
!!!OTL: mazurka_French-Assembly--The
!!!OMV: mazurka_French-Assembly--The
**kern
*clefG2
*k[f#]
*G:
*M3/4
=1
4g
8ggL
8ff#J
4gg
=
4g
8ggL
8ff#J
4gg
=
8aaL
8ggJ
8ff#L
8eeJ
8ddL
8ccJ
=
8bL
8ccJ
8ddL
8bJ
4g
=
4g
8ggL
8ff#J
4gg
=
4g
8ggL
8ff#J
4gg
=
8ff#L
8aaJ
8ff#L
8ddJ
8eeL
8cc#XJ
!!linebreak:original
=
4dd
8ddL
8ccJ
8bL
8aJ
=||
*M3/4
4g
8ggL
8ff#J
4gg
=
4g
8ggL
8ff#J
4gg
=
8aaL
8ggJ
8ff#L
8eeJ
8ddL
8ccJ
=
8bL
8ccJ
8ddL
8bJ
4g
=
4g
8ggL
8ff#J
4gg
=
4g
8ggL
8ff#J
4gg
!!linebreak:original
=
8ff#L
8aaJ
8ff#L
8ddJ
8eeL
8cc#XJ
=
2dd
4ryy
=||
4b
2ryy
=
4cc
8ccL
8bJ
8ccL
8aJ
=
4b
8bL
8aJ
8bL
8gJ
=
4a
8aL
8f#J
8aL
8f#J
=
4g
4e
4b
=
4cc
8ccL
8bJ
8ccL
8aJ
!!linebreak:original
=
4b
8bL
8aJ
8bL
8gJ
=
8dL
8eJ
8f#L
8gJ
8aL
8bJ
=
2g
4ryy
=||
4b
2ryy
=
4cc
8ccL
8bJ
8ccL
8aJ
=
4b
8bL
8aJ
8bL
8gJ
=
4a
8aL
8f#J
8aL
8f#J
=
4g
4e
4b
!!linebreak:original
=
4cc
8ccL
8bJ
8ccL
8aJ
=
4b
8bL
8aJ
8bL
8gJ
=
8dL
8eJ
8f#L
8gJ
8aL
8bJ
=
2.g
=||
*-
